!!!!SEGMENT: pl-kk--kk-i-382--024-004_anonim--nro-9-agnus.krn
!!!COM: Anonim
!!!COM-rismID: pe30004985
!!!CDT:
!!!CNT:
!!!OPR: Nro 9
!!!OTL: Agnus
!!!OMV: 004
!!!PDT:
!!!AGN: Sacred
!!!SMS-siglum: PL-Kk
!!!SMS-shelfmark: Kk.I.382
!!!SMS-shelfwork: 009-004 M
!!!SMS-variant:
!!!SMS-altvar:
!!!NIFC-rismSourceID: 1001139027
!!!NIFC-rismChildID: 1001139153
!!!NIFC-islandoraID: pl-kk:6162
!!!URL-pdf-islandora: https://repozytorium.nifc.pl/islandora/object/pl-kk%3A6162/datastream/PDF/view
!!!URL-scan: https://polish.musicsources.pl/pl/lokalizacje/galeria/rekopisy/5994 @EN{Scan on Polish Music Sources Website} @PL{Skany w portalu Dziedzictwo Muzyki Polskiej w otwartym dostępie}
!!!ONB-nifc: UWAGA: obsada: S/T 1, T 2, A/B 1, B 2. Agnus + Dona. Skan 0025, 0096-0097, 0171-0172, 0243
!!!AIN: 1 alto 1 bass 2 tenor
!!!key:
**kern	**text	**kern	**text	**kern	**text	**kern	**text
*part4	*part4	*part3	*part3	*part2	*part2	*part1	*part1
*staff4	*staff4	*staff3	*staff3	*staff2	*staff2	*staff1	*staff1
*Ibass	*	*Itenor	*	*Ialto	*	*Itenor	*
*I"Basso II	*	*I"Tenore II	*	*I"Alto vel Basso I	*	*I"Soprano vel Tenore I	*
*I'B 2	*	*I'T 2	*	*I'A vel B 1	*	*I'S vel T 1	*
*group1	*	*group1	*	*group1	*	*group1	*
*clefF4	*	*clefC4	*	*clefC3	*	*clefC1	*
*k[b-]	*	*k[b-]	*	*k[b-]	*	*k[b-]	*
*F:	*	*F:	*	*F:	*	*F:	*
*M3/4	*	*M3/4	*	*M3/4	*	*M3/4	*
=1	=1	=1	=1	=1	=1	=1	=1
*2\right	*	*2\right	*	*2\right	*	*2\right	*
!LO:TX:t=P:problem=all\right&colon; global	!	!LO:TX:t=P:problem=all\right&colon; global	!	!LO:TX:t=P:problem=all\right&colon; global	!	!LO:TX:t=P:problem=all\right&colon; global	!
!LO:TX:b:t=Agnus	!	!LO:TX:b:t=Agnus.	!	!LO:TX:b:t=Agnus.	!	!LO:TX:b:t=Agnus	!
2F\	A-	(4A\	A-	4f\	A-	2cc\	A-
.	.	8c\L	.	(8a\L	.	.	.
.	.	8A\J)	.	8f\J)	.	.	.
4C/	-gnus	(8d\L	-gnus	(8b-\L	-gnus	4g\	-gnus
.	.	8B-\J)	.	8g\J)	.	.	.
=2	=2	=2	=2	=2	=2	=2	=2
4F\	De-	4A\	De-	4f\	De-	4cc\	De-
4C/	-i	4G\	-i	4e\	-i	4cc\	-i
!LO:TX:t=P:problem=mixed beam	!	!	!	!	!	!	!
(8FF/L	qui	4A\	qui	4f\	qui	4cc\	qui
8F\J)	.	.	.	.	.	.	.
=3	=3	=3	=3	=3	=3	=3	=3
4C/	tol-	(8B-\L	tol-	(8g\L	tol-	(8ee\L	tol-
.	.	8A\J)	.	8f\J)	.	8cc\J)	.
8C/	-lis	8G/	lis	8e\	-lis	8cc\	-lis
8C/	pec-	8B-\	pec-	8g\	pec-	8ee\	pec-
8F\	-ca-	8A\	-ca-	8f\	-ca-	8cc\	-ca-
8C/	-ta	8G/	-ta	8e\	-ta	8cc\	-ta
=4	=4	=4	=4	=4	=4	=4	=4
4F\	mun-	4A\	mun-	4f\	mun-	4cc\	mun-
4C/	-di	4c\	-di	4g\	-di	4cc\	-di
4r	.	4r	.	4r	.	4r	.
!LO:LB:g=original	!	!LO:LB:g=original	!	!LO:LB:g=original	!	!LO:LB:g=original	!
=5	=5	=5	=5	=5	=5	=5	=5
2F\	A-	(4A\	a-	(4f\	A-	2cc\	A-
.	.	8c\L	.	8a\L	.	.	.
.	.	8A\J)	.	8f\J)	.	.	.
4C/	-gnus	(8d\L	-gnus	(8b-\L	-gnus	4g\	-gnus
.	.	8B-\J)	.	8g\J)	.	.	.
=6	=6	=6	=6	=6	=6	=6	=6
4F\	De-	4A\	De-	4f\	De-	4cc\	De-
4C/	-i	4G\	-i	4e\	-i	4cc\	-i
!LO:TX:t=P:problem=mixed beam	!	!	!	!	!	!	!
(8FF/L	qui	4A\	qui	4f\	qui	4cc\	qui
8F\J)	.	.	.	.	.	.	.
=7	=7	=7	=7	=7	=7	=7	=7
4C/	tol-	(8B-\L	tol-	(8g\L	tol-	(8ee\L	tol-
.	.	8A\J)	.	8f\J)	.	8cc\J)	.
8C/	-lis	8G/	-lis	8e\	-lis	8cc\	-lis
8C/	pec-	8B-\	pec-	8g\	pec-	8ee\	pec-
8F\	-ca-	8A/	-ca-	8f\	-ca-	8cc\	-ca-
8C/	-ta	8G/	-ta	8e\	-ta	8cc\	-ta
=8	=8	=8	=8	=8	=8	=8	=8
4F\	mun-	4A\	mun-	4f\	mun-	4cc\	mun-
4C/	-di	4c\	-di	4g\	-di,	4cc\	-di
!	!	!	!	!LO:TX:b:t=V&colon;S&colon;	!	!	!
4r	.	4r	.	4r	.	4r	.
!	!	!	!	!LO:PB:g=original	!	!	!
=9	=9	=9	=9	=9	=9	=9	=9
(4C\	mi-	(8e\L	mi-	(8g\L	mi-	2cc\	mi-
.	.	8d\	.	8f\	.	.	.
4E\)	.	8c\	.	8e\	.	.	.
.	.	8B-\J)	.	8d\J)	.	.	.
4C\	-se-	(8A\L	-se-	(8c\L	-se-	4ee\	-se-
.	.	8G\J)	.	8B-\J)	.	.	.
!	!	!LO:LB:g=original	!	!	!	!LO:LB:g=original	!
=10	=10	=10	=10	=10	=10	=10	=10
(4F\	-re-	(4F/	-re-	(4A/	-re-	(4cc\	-re-
4C/)	.	4G/)	.	4B-/)	.	4b-\)	.
4F\	-re	4A/	-re	4c/	-re	4a\	-re
!LO:LB:g=original	!	!	!	!	!	!	!
=11	=11	=11	=11	=11	=11	=11	=11
2C/	mi-	2B-\	mi-	(4d\	mi-	(4b-\	mi-
.	.	.	.	4g\)	.	4cc\)	.
4F\	se-	4A\	-se-	4f\	-se-	4cc\	-se-
=12	=12	=12	=12	=12	=12	=12	=12
(4E\	-re-	2G/	-re-	2e\	-re-	2b-\	re-
4C\)	.	.	.	.	.	.	.
4F\	-re	4A/	-re	4f\	-re	4cc\	-re
=13	=13	=13	=13	=13	=13	=13	=13
4D/	no-	(4B-\	no-	(4g\	no-	(4dd\	no-
2C/	.	4A\	.	4f\	.	2cc\)	.
.	.	4G\)	.	4e\)	.	.	.
=14	=14	=14	=14	=14	=14	=14	=14
2F\	-bis	2A\	-bis.	2f\	-bis	2cc\	-bis
!	!	!LO:TX:b:t=V&colon;S&colon;	!	!	!	!	!
4r	.	4r	.	4r	.	4r	.
=15	=15	=15	=15	=15	=15	=15	=15
(4C/	mi-	(8e\L	mi-	(8g\L	mi-	2cc\	mi-
.	.	8d\	.	8f\	.	.	.
4E/)	.	8c\	.	8e\	.	.	.
.	.	8B-\J)	.	8d\J)	.	.	.
4C/	-se	(8A\L	-se-	(8c\L	-se-	4ee\	-se-
.	.	8G\J)	.	8B-\J)	.	.	.
=16	=16	=16	=16	=16	=16	=16	=16
(4F\	re-	(4F/	-re-	(4A/	-re-	(4cc\	-re-
4C/)	.	4G/)	.	4B-/)	.	4b-\)	.
4F\	-re	4A/	-re	4c/	-re	4a\	-re
!	!	!	!	!LO:LB:g=original	!	!LO:LB:g=original	!
=17	=17	=17	=17	=17	=17	=17	=17
2C/	mi-	2B-\	mi-	(4d\	mi-	(4b-\	mi-
.	.	.	.	4g\)	.	4cc\)	.
4F\	-se-	4A\	-se-	4f\	-se-	4cc\	-se-
=18	=18	=18	=18	=18	=18	=18	=18
(4E\	-re-	2G/	-re-	2e\	-re-	2b-\	-re-
4C/)	.	.	.	.	.	.	.
4F\	-re	4A/	-re	4f\	-re	4cc\	-re
!LO:LB:g=original	!	!	!	!	!	!	!
=19	=19	=19	=19	=19	=19	=19	=19
(4D/	no-	(4B-\	no-	(4g\	no-	(4dd\	no-
2C/)	.	4A\	.	4f\	.	2cc\)	.
.	.	4G\)	.	4e\)	.	.	.
=20	=20	=20	=20	=20	=20	=20	=20
2.F\	-bis.	2.A\	-bis.	2.f\	-bis	2.cc\	-bis.
!	!	!LO:PB:g=original	!	!LO:LB:g=original	!	!LO:LB:g=original	!
=21||	=21||	=21||	=21||	=21||	=21||	=21||	=21||
*M4/4	*	*M4/4	*	*M4/4	*	*M4/4	*
*met(c)	*	*met(c)	*	*met(c)	*	*met(c)	*
!LO:TX:a:t=P:problem=metrum C z kropką w środku	!	!LO:TX:a:t=P:problem=metrum C z kropką w środku	!	!LO:TX:a:t=P:problem=metrum C z kropką w środku	!	!LO:TX:a:t=P:problem=metrum C z kropką w środku	!
(4F\	A-	(4A\	A-	(4f\	A-	2.cc\	A-
4G\)	.	4B-\)	.	4e\	.	.	.
(4A\	-gnus	(4A\	-gnus	4f\)	.	.	.
4B-\)	.	8B-\L	.	(8g\L	-gnus	4cc\	-gnus
.	.	8A\J)	.	8f\J)	.	.	.
=22	=22	=22	=22	=22	=22	=22	=22
4c\	De-	(8A/L	De-	4e\	De-	4g\	De-
.	.	8G/J)	.	.	.	.	.
4C/	-i	4G/	-i	4e\	-i	4g\	-i
4r	.	4r	.	4r	.	4r	.
4C/	qui	(8G/L	qui	(8e\L	qui	4g\	qui
.	.	8B-/J)	.	8g\J)	.	.	.
=23	=23	=23	=23	=23	=23	=23	=23
4F\	tol-	(8B-\L	tol-	(8g\L	tol-	4cc\	tol-
.	.	8A\J)	.	8f\J)	.	.	.
4F\	-lis	4A\	-lis	4f\	-lis	4cc\	-lis
4r	.	4r	.	4r	.	4r	.
4F\	pec-	4c\	pec-	4a\	pec-	4cc\	pec-
=24	=24	=24	=24	=24	=24	=24	=24
2E\	-ca-	2c\	-ca-	2b-\	-ca-	2g\	-ca-
2F\	-ta	2c\	-ta	2a\	-ta	2a\	-ta
=25	=25	=25	=25	=25	=25	=25	=25
(2BB-/	mun-	1d	mun-	(2g\	mun-	(2b-\	mun-
2BBn/)	.	.	.	2f\)	.	2dd\)	.
=26	=26	=26	=26	=26	=26	=26	=26
1C	-di.	1c	-di.	1g	-di.	1ee	-di.
!LO:LB:g=original	!	!LO:LB:g=original	!	!LO:LB:g=original	!	!LO:LB:g=original	!
=27||	=27||	=27||	=27||	=27||	=27||	=27||	=27||
*M4/4	*	*M4/4	*	*M4/4	*	*M4/4	*
*met(c)	*	*met(c)	*	*met(c)	*	*met(c)	*
!LO:TX:b:t=Dona	!	!LO:TX:b:t=Dona	!	!LO:TX:b:t=Dona	!	!LO:TX:b:t=Dona	!
!LO:TX:a:t=P:problem=metrum C z kropką w środku	!	!LO:TX:a:t=P:problem=metrum C z kropką w środku	!	!LO:TX:a:t=P:problem=metrum C z kropką w środku	!	!LO:TX:a:t=P:problem=metrum C z kropką w środku	!
4.F\	Do-	4.A/	Do-	4.c/	Do-	4.ff\	Do-
8F\	-na	8G/	-na	8B-/	na	8cc\	-na
!	!	!	!	!LO:TX:t=P:problem=mixed beam	!	!	!
4A\	no-	(8F/L	no-	(8A/L	no-	4cc\	no-
.	.	8A/J)	.	8f\J)	.	.	.
4F\	-bis	(8c\L	-bis	(8a\L	-bis	4cc\	-bis
.	.	8A\J)	.	8f\J)	.	.	.
=28	=28	=28	=28	=28	=28	=28	=28
4c\	pa-	4A\	pa-	4f\	pa-	4cc\	pa-
4C/	-cem	4G\	-cem	4e\	-cem	4cc\	-cem
4r	.	4r	.	4r	.	4r	.
4F\	do-	8A\	do-	8f\	do-	(8cc\L	do-
.	.	8B-\	-na	8d\	-na	8dd\J)	.
=29	=29	=29	=29	=29	=29	=29	=29
(4F\	-na	(8B-\L	no-	(8d/L	no-	4ff\	-na
.	.	8A\J)	.	8c/J)	.	.	.
4BB-/)	.	(8G/L	-bis	(8B-/L	-bis	8cc\	no-
.	.	8F/J)	.	8A/J)	.	8cc\	-bis
4BB-/	no-	8A/L	pa-	(8c/L	pa-	2cc\	pa-
.	.	8G/	.	8B-/	.	.	.
4C/	-bis	8F/	.	8A/	.	.	.
.	.	8E/J	.	8G/J)	.	.	.
!	!	!LO:LB:g=original	!	!	!	!	!
=30	=30	=30	=30	=30	=30	=30	=30
4F\	pa-	2F/	-cem	2A/	-cem	2cc\	-cem
4F\	-cem	.	.	.	.	.	.
!	!	!	!	!LO:LB:g=original	!	!	!
4r	.	8r	.	8r	.	4r	.
.	.	8A\	no-	8f\	do-	.	.
8r	.	(8c\L	-bis	(8a\L	-na	8r	.
8F\	da	8A\J)	.	8f\J)	.	8cc\	da
!	!	!	!	!	!	!LO:LB:g=original	!
=31	=31	=31	=31	=31	=31	=31	=31
4c\	pa-	4A/	pa-	4f\	no-	4cc\	pa-
4C/	-cem	4G/	-cem	4e\	-bis	4cc\	-cem
4r	.	8r	.	8r	.	4r	.
.	.	8B-\	no-	8g\	no-	.	.
8r	.	(8d\L	-bis	(8b-\L	-bis	8r	.
8C/	do-	8B-\J)	.	8g\J)	.	8ee\	da
!LO:LB:g=original	!	!	!	!	!	!	!
=32	=32	=32	=32	=32	=32	=32	=32
(4C/	-na	4B-\	pa-	4g\	pa-	4cc\	pa-
4F\)	.	4A\	-cem	4f\	-cem	4cc\	-cem
4F\	no-	2c\	da	2a\	do-	4r	.
4F\	-bis	.	.	.	.	4ff\	da
=33	=33	=33	=33	=33	=33	=33	=33
2F\	pa-	(8c\L	no-	(8a\L	-na	(2cc\	pa-
.	.	8B-\J)	.	8g\J)	.	.	.
.	.	(8d\L	-bis	(8b-\L	no-	.	.
.	.	8c\J)	.	8a\J)	.	.	.
4BB-/	-cem	8c\L	pa-	(8a\L	-bis	2dd\)	.
.	.	8B-\	.	8g\J)	.	.	.
4BBn/	da	8B-\	.	(8g\L	pa-	.	.
.	.	8A\J	.	8f\J)	.	.	.
=34	=34	=34	=34	=34	=34	=34	=34
4C/	pa-	2G/	-cem	2e\	-cem	2cc\	-cem
4C/	-cem	.	.	.	.	.	.
2r	.	2r	.	2r	.	2r	.
!	!	!LO:LB:g=original	!	!LO:LB:g=original	!	!	!
=35	=35	=35	=35	=35	=35	=35	=35
4C/	do-	4.e\	do-	4.g\	do-	4.cc\	do-
4C/	-na	.	.	.	.	.	.
.	.	8d\	-na	8f\	-na	8bn\	-na
4C/	no-	4c\	no-	4e\	no-	4g\	no-
4C/	-bis	4e\	-bis	4g\	-bis	4cc\	-bis
=36	=36	=36	=36	=36	=36	=36	=36
4G\	pa-	(8e\L	pa-	(8g\L	pa-	(8cc\L	pa-
.	.	8d\J)	.	8f\J)	.	8dd\J)	.
4GG/	-cem	4Bn\	-cem	4d\	-cem	4ff\	-cem
2r	.	2r	.	2r	.	2r	.
!LO:LB:g=original	!	!	!	!	!	!LO:LB:g=original	!
=37	=37	=37	=37	=37	=37	=37	=37
4GG/	do-	4.d\	do-	4.f\	Do-	4.bn\	do-
4G\	-na	.	.	.	.	.	.
.	.	8c\	-na	8e\	-na	8cc\	-na
4G\	no-	4Bn\	no-	4d\	no-	4dd\	no-
4G\	-bis	4d\	-bis	4f\	-bis	4b\	-bis
=38	=38	=38	=38	=38	=38	=38	=38
(4c\	pa-	(4.c\	pa-	(4.e\	pa-	2g\	pa-
4G\)	.	.	.	.	.	.	.
.	.	8d\)	.	8f\)	.	.	.
4E\	cem	4e\	-cem	4g\	-cem	4g\	-cem
4C/	da	(8c\L	da	8e\	do-	4g\	da
.	.	8G\J)	.	8c\	-na	.	.
!	!	!LO:LB:g=original	!	!	!	!	!
=39	=39	=39	=39	=39	=39	=39	=39
!	!	!	!	!LO:TX:t=P:problem=kasownik zapisany jako #	!	!	!
(2GG/	pa-	(8G\L	no-	(8Bn/L	no-	1g	pa-
.	.	8A\J)	.	8c/J)	.	.	.
.	.	(8A\L	-bis	(8c/L	-bis	.	.
.	.	8Bn\J)	.	8d/J)	.	.	.
2G\)	.	8B\L	pa-	(8d\L	pa-	.	.
.	.	8c\	.	8e\)	.	.	.
.	.	8c\	.	(8e\	.	.	.
.	.	8d\J	.	8f\J)	.	.	.
!	!	!	!	!LO:LB:g=original	!	!	!
=40	=40	=40	=40	=40	=40	=40	=40
2G\	-cem	2d\	cem	2f\	-cem	2bn\	-cem
2r	.	8r	.	8r	.	2r	.
.	.	8f\	do-	8a\	do-	.	.
.	.	(8e\L	-na	(8g\L	-na	.	.
.	.	8d\J)	.	8f\J)	.	.	.
=41	=41	=41	=41	=41	=41	=41	=41
4C\	do-	(8c\L	no-	(8e\L	no-	4g\	do-
.	.	8e\J)	.	8g\J)	.	.	.
4F\	-na	(8f\L	-bis	(8a\L	-bis	4a\	-na
.	.	8d\J)	.	8f\J)	.	.	.
4G\	no-	(4c\	pa-	(4e\	pa-	2g\	pa-
4GG/	-bis	4Bn\)	.	4d\)	.	.	.
=42	=42	=42	=42	=42	=42	=42	=42
4C/	pa-	2c\	-cem	2e\	-cem	2g\	-cem,
4C/	-cem	.	.	.	.	.	.
!	!	!	!	!	!	!LO:TX:b:t=V&colon;S&colon;	!
2r	.	2r	.	2r	.	2r	.
!LO:LB:g=original	!	!LO:LB:g=original	!	!	!	!LO:PB:g=original	!
=43	=43	=43	=43	=43	=43	=43	=43
4.F\	do-	4.A\	do-	4.f\	do-	4.cc\	Do-
8F\	-na	8A\	-na	8c\	-na	8ff\	-na
4A\	no-	4A\	no-	4c\	no-	4ff\	no-
4F\	-bis	(8B-X\L	-bis	(8d\L	-bis	4ff\	-bis
.	.	8c\J)	.	8e-X\J)	.	.	.
=44	=44	=44	=44	=44	=44	=44	=44
(4B-\	pa-	(8d\L	pa-	(8f\L	pa-	2ff\	pa-
.	.	8B-\	.	8d\	.	.	.
4F\)	.	8A\	.	8c\	.	.	.
.	.	8c\J)	.	8e-X\J)	.	.	.
4BB-/	-cem	4B-\	-cem	4d\	-cem	4ff\	-cem
4r	.	4r	.	4r	.	4r	.
=45	=45	=45	=45	=45	=45	=45	=45
4.G\	do-	4.Bn\	do-	4.g\	do-	4.dd\	do-
8G\	-na	8B\	-na	8d\	-na	8gg\	-na
4Bn\	no-	4B\	no-	4d\	no-	4gg\	no-
4G\	-bis	(8c\L	-bis	(8en\L	-bis	4gg\	-bis
.	.	8d\J)	.	8f\J)	.	.	.
!	!	!	!	!LO:LB:g=original	!	!	!
=46	=46	=46	=46	=46	=46	=46	=46
(4c\	pa-	(8e\L	pa-	(8g\L	pa-	2gg\	pa-
.	.	8c\	.	8e\	.	.	.
4G\)	.	8Bn\	.	8d\	.	.	.
.	.	8d\J)	.	8f\J)	.	.	.
4C/	-cem	4c\	-cem,	4e\	-cem	4gg\	-cem
4r	.	4r	.	4r	.	4r	.
!	!	!LO:LB:g=original	!	!	!	!	!
=47	=47	=47	=47	=47	=47	=47	=47
4.C/	Do-	4.G/	do-	4.e\	do-	4.ee\	do-
8C/	-na	8A/	-na	8f\	-na	8ee\	-na
4E\	no-	4B-X\	no-	4g\	no-	4ee\	no-
4C/	-bis	4g\	-bis	4b-X\	-bis	4cc\	-bis
!LO:LB:g=original	!	!	!	!	!	!LO:LB:g=original	!
=48	=48	=48	=48	=48	=48	=48	=48
(4F\	pa-	4f\	pa-	4a\	do-	2cc\	pa-
4C/)	.	4e\	-cem	4g\	-na	.	.
4F\	-cem	4c\	do-	4f\	no-	4a\	-cem
4E\	da	4e\	-na	4g\	-bis	4cc\	da
=49	=49	=49	=49	=49	=49	=49	=49
(4F\	pa-	4c\	no-	4a\	no-	(4a\	pa-
4A\	.	(8d\L	-bis	(8b-X\L	-bis	4dd\	.
.	.	8B-X\J)	.	8g\J)	.	.	.
4c\	.	(4A\	pa-	(4f\	pa-	2cc\)	.
4C/)	.	8B-\L	.	8g\L	.	.	.
.	.	8G\J)	.	8e\J)	.	.	.
=50	=50	=50	=50	=50	=50	=50	=50
2.F\	-cem	2A\	-cem,	2f\	-cem.	2cc\	-cem
.	.	2r	.	2r	.	2r	.
4r	.	.	.	.	.	.	.
!	!	!LO:LB:g=original	!	!LO:LB:g=original	!	!	!
=51	=51	=51	=51	=51	=51	=51	=51
4.F\	do-	4.A\	do-	4.f\	do-	4.cc\	do-
8F\	-na	8A\	-na	8c\	-na	8ff\	-na
4A\	no-	4A\	no-	4c\	no-	4ff\	no-
4F\	-bis	(8B-X\L	-bis	(8d\L	-bis	4ff\	-bis
.	.	8c\J)	.	8e-X\J)	.	.	.
=52	=52	=52	=52	=52	=52	=52	=52
(4B-\	pa-	(8d\L	pa-	8f\L	pa-	2ff\	pa-
.	.	8B-\	.	8d\	.	.	.
4F\)	.	8A\	.	8c\	.	.	.
.	.	8c\J)	.	8e-X\J	.	.	.
4BB-/	-cem	4B-\	-cem	4d\	-cem	4ff\	-cem
4r	.	4r	.	4r	.	4r	.
!	!	!	!	!	!	!LO:LB:g=original	!
=53	=53	=53	=53	=53	=53	=53	=53
4.G\	do-	4.Bn\	do-	4.g\	do-	4.dd\	do-
8G\	-na	8B\	-na	8d\	-na	8gg\	-na
4Bn\	no-	4B\	no-	4d\	no-	4gg\	no-
4G\	-bis	(8c\L	-bis	(8en\L	-bis	4gg\	-bis
.	.	8d\J)	.	8f\J)	.	.	.
!LO:LB:g=original	!	!	!	!	!	!	!
=54	=54	=54	=54	=54	=54	=54	=54
(4c\	pa-	(8e\L	pa-	(8g\L	pa-	2gg\	pa-
.	.	8c\	.	8e\	.	.	.
4G\)	.	8Bn\	.	8d\	.	.	.
.	.	8d\J)	.	8f\J)	.	.	.
4C/	-cem	4c\	-cem	4e\	-cem	4gg\	-cem
4r	.	4r	.	4r	.	4r	.
!	!	!LO:LB:g=original	!	!	!	!	!
=55	=55	=55	=55	=55	=55	=55	=55
4.C/	do-	4.G/	do-	4.e\	do-	4.ee\	do-
8C/	-na	8A/	-na	8f\	-na	8cc\	-na
!	!	!	!	!LO:LB:g=original	!	!	!
4E\	no-	4B-X\	no-	4g\	no-	4ee\	no-
4C/	-bis	4g\	-bis	4b-X\	-bis	4cc\	-bis
=56	=56	=56	=56	=56	=56	=56	=56
(4F\	pa-	4f\	pa-	4a\	do-	2cc\	pa-
4C/)	.	4e\	-cem	4g\	-na	.	.
4F\	-cem	4c\	do-	4f\	no-	4a\	-cem
4E\	da	4e\	-na	4g\	-bis	4cc\	da
=57	=57	=57	=57	=57	=57	=57	=57
(4F\	pa-	4c\	no-	4a\	no-	(4a\	pa-
4A\	.	(8d\L	-bis	(8b-\L	-bis	4dd\	.
.	.	8B-X\J)	.	8g\J)	.	.	.
4c\	.	(4A\	pa-	(4f\	pa-	2cc\)	.
4C/)	.	8B-\L	.	8g\L	.	.	.
.	.	8G\J)	.	8en\J)	.	.	.
=58	=58	=58	=58	=58	=58	=58	=58
1F	-cem.	1A	-cem.	1f	-cem.	1cc	-cem.
==	==	==	==	==	==	==	==
*-	*-	*-	*-	*-	*-	*-	*-
!!!system-decoration: [(g1)]
!!!cenid: 18xx:1503
!!!ENC: Anna Matuszewska
!!!END: 2021-02-19
!!!ENC: Marcin Jachim
!!!END: 2021-01-29
!!!YEC: Copyright 2022 Narodowy Instytut Fryderyka Chopina (https://polishscores.org)
!!!YEM: License CC-BY-4.0 (https://creativecommons.org/licenses/by/4.0)
